X: 1
T: Trim The Velvet
R: reel
M: 4/4
L: 1/8
K: Gmaj
~G3B AGFD|GBdB BAFA|~G3B AGFA|defd cAFA|
~G3B ~A3c|BcdB BAFA|~G3B AGFA|defd cAFA||
dgeg dg~g2|dedB cAFA|dgeg dg~g2|defd cAFA|
d3e dBGB|dGBd cAFA|dgeg dg~g2|defd cAFA||
~g3a bgaf|g2ab c'baf|g2af g2af|defd cAFA|
~g3a bgaf|g2ab c'ba2|bg~g2 af~f2|defd cAFA||
BGdG BG~G2|(3BAG dB cAFA|BGdG BG~G2|defd cAFA|
BGdG BG~G2 |DGBd cAFA|~B3G c2ce|defd cAFA||


Tune 1142	Setting 24133

